X: 7
T: The Earl's Chair
R: reel
M: 4/4
L: 1/8
K: Dmaj
A|"Bm"B2 dB BAFA|"(G)"B2 dB BAFB|"D"A F ~F2 D F ~F2|AFdB ADFA|
"Bm"B2 dB BAFA|"(G)"B2 dB BAFB|"A"AFAB "D"dcdf|"A"edef "D"d3|
f|"A" edef "D"d2 Bd|"A"edef "D"dBAB|"A" edef "D" d2de|"D"fedB ADFA|
"A" e2ef "Bm"d B ~B2|"G"g B ~B2 defg|"A"afbf "D"afeg|fedB "A"A3|

%%newpage
%% header "Pizza Wizards - High Drive / Old Copper Plate		$P"
%% scale 0.7

